X:1
T:Title
%%score { ( 1 3 ) | ( 2 4 ) }
L:1/8
M:4/4
K:Eb
V:1 treble nm="Grand Piano"
V:3 treble 
V:2 bass 
V:4 bass 
V:1
 z4 z2[Q:1/4=100] [EG]>[FA] | [GB]>[Ac] [GB]>[EG] [GB]>[Ge] [Ad]>[Ac] | %2
 [GB]>G E>[Ac] [GB]2 [FA]>[EG] | [DF]>[EG] [FA]>[GB] [Ad]>[Ac] [FA]>[DF] |[M:7/8] E>FG>B F3 | %5
[M:1/4] G>[FA] |[M:4/4] [GB]>G F>E G<B B>B | c>c e>c [GB]2 [GB]>[GB] | %8
 c>c c>c [Ad]>[Ad] [Ac]>[Ad] |[M:3/4] e6 |[M:1/4] [Ge]>[Bd] |[M:4/4] c>c c>c [Ac]>[GB] [EG]>[FA] | %12
 B6 z2 | [Ac]>[GB] G>F E>F G>B |[M:3/4] F6 |[M:1/4] G>[FA] |[M:4/4] [GB]>G F>E G<B B>B | %17
 c>c e>c [GB]2 [GB]>[GB] | c>c c>c [Ad]>[Ad] [Ac]>[Ad] |[M:7/4] e2- [Ae-]>[Ae-] [Ge]2 z2 z2 z4 |] %20
V:2
 z4 z2 [E,B,]>[E,B,] | [E,E]>[E,E] [E,E]>[E,B,] [E,B,]>[E,B,] [E,C]>[E,D] | %2
 [E,E]>[E,B,E] [E,G,]>[E,E] [E,E]2 [E,B,]>[E,B,] | %3
 [B,,B,]>[B,,B,] [B,,B,]>[B,,B,] [B,,B,]>[B,,B,] [B,,B,]>[B,,A,] | %4
[M:7/8] [E,G,]>[E,A,E][E,B,E]>[G,B,E] [B,D]3 |[M:1/4] [E,B,E]>[E,B,] | %6
[M:4/4] [E,E]>[E,B,E] [E,A,E]>[E,G,] [E,B,E]<[E,G,E] [E,G,E]>[E,G,E] | %7
 [A,E]>[A,A] [A,CA]>[A,EA][K:bass] [E,E]2 [E,E]>[E,E] | %8
 [A,EA]>[A,EA] [A,EA]>[A,EA][K:bass] [F,B,]>[F,B,] [B,,B,]>[B,,B,] |[M:3/4] B,2 z2 z2 | %10
[M:1/4] [E,B,]>[E,E] | %11
[M:4/4][K:treble] [A,EA]>[A,EA] [A,EA]>[A,EA][K:bass] [E,E]>[E,E] [E,B,]>[E,B,] | %12
 [E,E]2 [E,G,]>[E,A,] [E,B,]2 [E,B,]>[F,E] | %13
 [E,E]>[E,E] [E,B,E]>[E,A,E] [E,G,]>[E,A,E] [E,B,E]>[G,B,E] | %14
[M:3/4] [B,D]2 [B,,B,]>[B,,B,] [B,,B,]2 |[M:1/4] [E,B,E]>[E,B,] | %16
[M:4/4] [E,E]>[E,B,E] [E,A,E]>[E,G,] [E,B,E]<[E,G,E] [E,G,E]>[E,G,E] | %17
 [A,E]>[A,A] [A,CA]>[A,EA][K:bass] [E,E]2 [E,E]>[E,E] | %18
 [A,EA]>[A,EA] [A,EA]>[A,EA][K:bass] [F,B,]>[F,B,] [B,,B,]>[B,,B,] |[M:7/4] B,2 z2 z2 z2 z2 z4 |] %20
V:3
 x8 | x8 | x8 | x8 |[M:7/8] x7 |[M:1/4] x2 |[M:4/4] x8 | x8 | x8 |[M:3/4] G2 A>A G2 |[M:1/4] x2 | %11
[M:4/4] x8 | G2 E>F G2 [Ge]>[Bd] | x8 |[M:3/4] z2 D>D D2 |[M:1/4] x2 |[M:4/4] x8 | x8 | x8 | %19
[M:7/4] G2 z2 z2 z2 z2 z4 |] %20
V:4
 x8 | x8 | x8 | x8 |[M:7/8] x7 |[M:1/4] x2 |[M:4/4] x8 | x4[K:bass] x4 | x4[K:bass] x4 | %9
[M:3/4] E,2- [E,-C]>[E,-C] [E,B,]2 |[M:1/4] x2 |[M:4/4][K:treble] x4[K:bass] x4 | x8 | x8 | %14
[M:3/4] x6 |[M:1/4] x2 |[M:4/4] x8 | x4[K:bass] x4 | x4[K:bass] x4 | %19
[M:7/4] E,2- [E,-C]>[E,-C] [E,B,]2 z2 z2 z4 |] %20

